humanity-icon-theme/Humanity/apps/16/user-info.svg

<?xml version="1.0" encoding="UTF-8" standalone="no"?>
<!-- Created with Inkscape (http://www.inkscape.org/) -->

<svg
   xmlns:svg="http://www.w3.org/2000/svg"
   xmlns="http://www.w3.org/2000/svg"
   xmlns:xlink="http://www.w3.org/1999/xlink"
   version="1.0"
   width="16"
   height="16"
   id="svg11300">
  <defs
     id="defs3">
    <linearGradient
       id="linearGradient3769">
      <stop
         id="stop3771"
         style="stop-color:#1f4b6a;stop-opacity:1"
         offset="0" />
      <stop
         id="stop3773"
         style="stop-color:#4083c2;stop-opacity:1"
         offset="1" />
    </linearGradient>
    <linearGradient
       id="linearGradient3759">
      <stop
         id="stop3761"
         style="stop-color:#8badea;stop-opacity:1"
         offset="0" />
      <stop
         id="stop3763"
         style="stop-color:#6396cd;stop-opacity:1"
         offset="0.26238" />
      <stop
         id="stop3765"
         style="stop-color:#3b7caf;stop-opacity:1"
         offset="0.66093999" />
      <stop
         id="stop3767"
         style="stop-color:#194c70;stop-opacity:1"
         offset="1" />
    </linearGradient>
    <linearGradient
       id="linearGradient3785">
      <stop
         id="stop3787"
         style="stop-color:#b8b8b8;stop-opacity:1"
         offset="0" />
      <stop
         id="stop3789"
         style="stop-color:#878787;stop-opacity:1"
         offset="1" />
    </linearGradient>
    <linearGradient
       id="linearGradient6954">
      <stop
         id="stop6960"
         style="stop-color:#f5f5f5;stop-opacity:1"
         offset="0" />
      <stop
         id="stop6962"
         style="stop-color:#d2d2d2;stop-opacity:1"
         offset="1" />
    </linearGradient>
    <linearGradient
       id="linearGradient3341">
      <stop
         id="stop3343"
         style="stop-color:#ffffff;stop-opacity:1"
         offset="0" />
      <stop
         id="stop3345"
         style="stop-color:#ffffff;stop-opacity:0"
         offset="1" />
    </linearGradient>
    <radialGradient
       cx="24.999998"
       cy="28.659998"
       r="16"
       fx="24.999998"
       fy="28.659998"
       id="radialGradient2858"
       xlink:href="#linearGradient6954"
       gradientUnits="userSpaceOnUse"
       gradientTransform="matrix(0.56186795,0,0,0.15787922,-6.1682604,5.3385209)" />
    <linearGradient
       x1="30"
       y1="25.084745"
       x2="30"
       y2="45"
       id="linearGradient2860"
       xlink:href="#linearGradient3785"
       gradientUnits="userSpaceOnUse"
       gradientTransform="matrix(0.42808986,0,0,0.42296591,-2.823809,-3.2486024)" />
    <radialGradient
       cx="26.375898"
       cy="12.31301"
       r="8"
       fx="26.375898"
       fy="12.31301"
       id="radialGradient2863"
       xlink:href="#linearGradient6954"
       gradientUnits="userSpaceOnUse"
       gradientTransform="matrix(0.55250164,-0.0426402,0.04315608,0.50971914,-6.3026675,-1.9765067)" />
    <linearGradient
       x1="30"
       y1="5"
       x2="30"
       y2="44.678879"
       id="linearGradient2865"
       xlink:href="#linearGradient3785"
       gradientUnits="userSpaceOnUse"
       gradientTransform="matrix(0.33685737,0,0,0.32161283,-0.10572085,-0.29529973)" />
    <linearGradient
       x1="30"
       y1="0.91818392"
       x2="30"
       y2="25.792814"
       id="linearGradient2867"
       xlink:href="#linearGradient3341"
       gradientUnits="userSpaceOnUse"
       gradientTransform="matrix(0.33685737,0,0,0.32161283,-0.10572085,-0.29529973)" />
    <linearGradient
       x1="29.955881"
       y1="21.86607"
       x2="29.955881"
       y2="43.144382"
       id="linearGradient2869"
       xlink:href="#linearGradient3341"
       gradientUnits="userSpaceOnUse"
       gradientTransform="matrix(0.42808986,0,0,0.42296591,-2.823809,-3.2486024)" />
    <radialGradient
       cx="23.895569"
       cy="3.9900031"
       r="20.397499"
       fx="23.895569"
       fy="3.9900031"
       id="radialGradient2455"
       xlink:href="#linearGradient3759"
       gradientUnits="userSpaceOnUse"
       gradientTransform="matrix(0,0.83425714,-1.1012046,0,12.39381,-19.583002)" />
    <linearGradient
       x1="18.379412"
       y1="44.980297"
       x2="18.379412"
       y2="3.0816143"
       id="linearGradient2457"
       xlink:href="#linearGradient3769"
       gradientUnits="userSpaceOnUse"
       gradientTransform="matrix(0.34955047,0,0,0.34955047,-0.38921019,-0.38921104)" />
  </defs>
  <g
     id="g3775">
    <g
       transform="translate(-3.9999393,-1.0016196)"
       id="g3743">
      <path
         d="M 8.84375,6.5 C 8.76311,7.180093 9.4339142,8.600105 9.0625,9.21875 7.6176751,9.7236407 5.0136423,10.644898 4.875,11.25 4.77263,12.189935 4.6190814,13.561421 4.5,14.5 c 2.5328977,1.368167 8.491801,1.30225 10.9375,0 -0.0863,-0.665917 -0.163702,-2.584084 -0.25,-3.25 C 14.53386,10.469482 12.812615,10.01275 11,9.21875 10.526353,8.602577 11.243461,7.22557 11.09375,6.53125 10.807324,6.482003 9.133812,6.507525 8.84375,6.5 z"
         id="path2880"
         style="fill:url(#radialGradient2858);fill-opacity:1;stroke:url(#linearGradient2860);stroke-width:1.00012147;stroke-linejoin:round;stroke-miterlimit:4;stroke-opacity:1;stroke-dasharray:none" />
      <path
         d="m 10,1.46875 c -1.3953075,0 -2.53125,1.0066477 -2.53125,2.25 0.010946,0.4601408 0.05895,1.0054807 0.34375,2.25 0.1684289,0.4824189 1.6739448,1.7766941 1.6875,1.9375 0.3266416,0.1608049 0.850642,0.1608049 1.1875,0 0,-0.1608059 1.331572,-1.4550811 1.5,-1.9375 0.320478,-1.293427 0.326559,-1.7675806 0.34375,-2.25 0,-1.2433523 -1.13594,-2.25 -2.53125,-2.25 z"
         id="path2870"
         style="fill:url(#radialGradient2863);fill-opacity:1;stroke:url(#linearGradient2865);stroke-width:0.94714093;stroke-miterlimit:4;stroke-opacity:1;stroke-dasharray:none" />
      <path
         d="M 10,2.46875 C 9.3876089,2.453926 8.7330161,2.7993069 8.53125,3.40625 c -0.1135765,0.4104884 -0.010161,0.836839 0.03125,1.25 0.05222,0.3381399 0.1132782,0.6660809 0.1875,1 0.1940928,0.171452 0.3611426,0.3974634 0.5625,0.5625 C 9.5758075,6.4747814 9.8032965,6.7399516 10.0625,7 10.330703,6.7826897 10.510924,6.4967292 10.75,6.25 10.902681,6.070177 11.060251,5.8623797 11.21875,5.6875 11.376386,4.9772187 11.558479,4.2653005 11.5,3.53125 11.375368,2.844477 10.652976,2.4515616 10,2.46875 z"
         id="path2866"
         style="fill:none;stroke:url(#linearGradient2867);stroke-width:0.94714093;stroke-miterlimit:4;stroke-opacity:1;stroke-dasharray:none" />
      <path
         d="m 10,9.0625 c 0.04083,0.6184717 -0.4844988,1.101042 -1.0625,1.1875 -1.0618145,0.377577 -2.1650919,0.706505 -3.125,1.3125 -0.224724,0.540724 -0.1042376,1.160705 -0.25,1.71875 -0.3309301,0.708961 0.5690774,0.776057 1.03125,0.90625 2.2561001,0.540715 4.652113,0.499061 6.90625,-0.03125 0.335847,-0.168593 1.138282,-0.08494 0.9375,-0.625 C 14.37527,12.943737 14.34558,12.339597 14.3125,11.75 13.392452,11.041669 12.225582,10.792671 11.1875,10.3125 10.364527,10.195739 10.334895,9.5928835 10,9.0625 z"
         id="path2876"
         style="fill:none;stroke:url(#linearGradient2869);stroke-width:1.00012147;stroke-linejoin:round;stroke-miterlimit:4;stroke-opacity:1;stroke-dasharray:none" />
    </g>
    <g
       transform="matrix(0.56249999,0,0,0.56249999,7.0000001,7.0000007)"
       id="layer1">
      <path
         d="m 8.000001,0.88883285 c -3.9236957,0 -7.11116819,3.18746995 -7.11116819,7.11116615 0,3.923697 3.18747249,7.11117 7.11116819,7.111167 3.923695,0 7.111169,-3.18747 7.111166,-7.111167 0,-3.9236962 -3.187471,-7.11116615 -7.111166,-7.11116615 z"
         id="path2449"
         style="fill:url(#radialGradient2455);fill-opacity:1;stroke:url(#linearGradient2457);stroke-width:1.77766597;stroke-linecap:round;stroke-linejoin:round;stroke-miterlimit:4;stroke-opacity:1;stroke-dasharray:none;stroke-dashoffset:0" />
      <path
         d="M 5.3333333,7.6398534 C 5.47867,7.9107951 5.6377692,8.1291401 5.9362734,7.814662 6.316661,7.6237421 7.5816286,6.799298 7.4907859,7.5714345 7.1463787,9.0056654 6.7103871,10.427752 6.395176,11.865467 6.028784,12.658661 6.9892263,13.336281 7.9274951,12.798866 8.9358757,12.441085 9.7905986,11.882623 10.666667,11.367482 10.53163,11.138546 10.432341,10.806762 10.108307,11.121603 9.6702256,11.291641 8.7338964,12.058469 8.5213674,11.45639 8.8164097,9.9057796 9.4340108,8.4022812 9.7987716,6.8618118 10.170872,6.1472017 9.4577936,5.2807713 8.4892825,5.8922905 7.3137671,6.3312707 6.3473376,7.0189345 5.3333333,7.6398534 z M 9.5051606,2.3265248 C 8.2819421,2.3141982 7.7224285,3.8522641 8.9039124,4.2319726 9.8604066,4.50075 10.846465,3.7243506 10.578008,2.98723 10.486583,2.6019129 10.019223,2.2976084 9.5051616,2.3265248 l -10e-7,0 z"
         id="path3536"
         style="font-size:40px;font-style:normal;font-variant:normal;font-weight:bold;font-stretch:normal;text-align:start;line-height:100%;writing-mode:lr-tb;text-anchor:start;fill:#ffffff;fill-opacity:1;stroke:none;font-family:URW Palladio L;-inkscape-font-specification:URW Palladio L Bold" />
    </g>
  </g>
</svg>

<?xml version="1.0" encoding="UTF-8" standalone="no"?>
<!-- Created with Inkscape (http://www.inkscape.org/) -->
<svg id="svg11300" xmlns="http://www.w3.org/2000/svg" height="16" width="16" version="1.0" xmlns:xlink="http://www.w3.org/1999/xlink">
 <defs id="defs3">
  <linearGradient id="linearGradient3785">
   <stop id="stop3787" style="stop-color:#b8b8b8" offset="0"/>
   <stop id="stop3789" style="stop-color:#878787" offset="1"/>
  </linearGradient>
  <linearGradient id="linearGradient6954">
   <stop id="stop6960" style="stop-color:#f5f5f5" offset="0"/>
   <stop id="stop6962" style="stop-color:#d2d2d2" offset="1"/>
  </linearGradient>
  <linearGradient id="linearGradient3341">
   <stop id="stop3343" style="stop-color:#fff" offset="0"/>
   <stop id="stop3345" style="stop-color:#fff;stop-opacity:0" offset="1"/>
  </linearGradient>
  <radialGradient id="radialGradient2858" xlink:href="#linearGradient6954" gradientUnits="userSpaceOnUse" cy="28.66" cx="25" gradientTransform="matrix(.56187 0 0 .15788 -6.1683 5.3385)" r="16"/>
  <linearGradient id="linearGradient2860" y2="45" xlink:href="#linearGradient3785" gradientUnits="userSpaceOnUse" x2="30" gradientTransform="matrix(.42809 0 0 .42297 -2.8238 -3.2486)" y1="25.085" x1="30"/>
  <radialGradient id="radialGradient2863" xlink:href="#linearGradient6954" gradientUnits="userSpaceOnUse" cy="12.313" cx="26.376" gradientTransform="matrix(.55250 -.042640 .043156 .50972 -6.3027 -1.9765)" r="8"/>
  <linearGradient id="linearGradient2865" y2="44.679" xlink:href="#linearGradient3785" gradientUnits="userSpaceOnUse" x2="30" gradientTransform="matrix(.33686 0 0 .32161 -.10572 -.29530)" y1="5" x1="30"/>
  <linearGradient id="linearGradient2867" y2="25.793" xlink:href="#linearGradient3341" gradientUnits="userSpaceOnUse" x2="30" gradientTransform="matrix(.33686 0 0 .32161 -.10572 -.29530)" y1=".91818" x1="30"/>
  <linearGradient id="linearGradient2869" y2="43.144" xlink:href="#linearGradient3341" gradientUnits="userSpaceOnUse" x2="29.956" gradientTransform="matrix(.42809 0 0 .42297 -2.8238 -3.2486)" y1="21.866" x1="29.956"/>
  <radialGradient id="radialGradient2455" gradientUnits="userSpaceOnUse" cy="3.99" cx="23.896" gradientTransform="matrix(0 .83426 -1.1012 0 12.394 -19.583)" r="20.397">
   <stop id="stop3761" style="stop-color:#8badea" offset="0"/>
   <stop id="stop3763" style="stop-color:#6396cd" offset=".26238"/>
   <stop id="stop3765" style="stop-color:#3b7caf" offset=".66094"/>
   <stop id="stop3767" style="stop-color:#194c70" offset="1"/>
  </radialGradient>
  <linearGradient id="linearGradient2457" y2="3.0816" gradientUnits="userSpaceOnUse" x2="18.379" gradientTransform="matrix(.34955 0 0 .34955 -.38921 -.38921)" y1="44.98" x1="18.379">
   <stop id="stop3771" style="stop-color:#1f4b6a" offset="0"/>
   <stop id="stop3773" style="stop-color:#4083c2" offset="1"/>
  </linearGradient>
 </defs>
 <g id="g3775">
  <g id="g3743" transform="translate(-3.9999 -1.0016)">
   <path id="path2880" style="stroke-linejoin:round;stroke:url(#linearGradient2860);stroke-width:1.0001;fill:url(#radialGradient2858)" d="m8.8438 6.5c-0.0807 0.6801 0.5901 2.1001 0.2187 2.7188-1.4448 0.5048-4.0489 1.4262-4.1875 2.0312-0.1024 0.94-0.2559 2.311-0.375 3.25 2.5329 1.3682 8.4918 1.3022 10.938 0-0.0863-0.66592-0.1637-2.5841-0.25-3.25-0.654-0.781-2.375-1.237-4.188-2.0312-0.474-0.6162 0.243-1.9932 0.094-2.6876-0.287-0.0492-1.9602-0.0237-2.2502-0.0312z"/>
   <path id="path2870" style="stroke:url(#linearGradient2865);stroke-width:.94714;fill:url(#radialGradient2863)" d="m10 1.4688c-1.3953 0-2.5312 1.0066-2.5312 2.25 0.010946 0.46014 0.05895 1.0055 0.34375 2.25 0.16843 0.48242 1.6739 1.7767 1.6875 1.9375 0.32664 0.1608 0.85064 0.1608 1.1875 0 0-0.16081 1.3316-1.4551 1.5-1.9375 0.32048-1.2934 0.32656-1.7676 0.34375-2.25 0-1.2434-1.1359-2.25-2.5312-2.25z"/>
   <path id="path2866" style="stroke:url(#linearGradient2867);stroke-width:.94714;fill:none" d="m10 2.4688c-0.6124-0.0149-1.267 0.3305-1.4688 0.9374-0.11358 0.41049-0.010161 0.83684 0.03125 1.25 0.05222 0.33814 0.11328 0.66608 0.1875 1 0.19409 0.17145 0.36114 0.39746 0.5625 0.5625 0.2634 0.2561 0.4909 0.5213 0.7496 0.7813 0.269-0.2173 0.449-0.5033 0.688-0.75 0.153-0.1798 0.31-0.3876 0.469-0.5625 0.157-0.7103 0.339-1.4222 0.281-2.1563-0.125-0.6867-0.847-1.0796-1.5-1.0624z"/>
   <path id="path2876" style="stroke-linejoin:round;stroke:url(#linearGradient2869);stroke-width:1.0001;fill:none" d="m10 9.0625c0.04083 0.61847-0.4845 1.101-1.0625 1.1875-1.0618 0.37758-2.1651 0.7065-3.125 1.3125-0.22472 0.54072-0.10424 1.1607-0.25 1.7188-0.33093 0.70896 0.56908 0.77606 1.0312 0.90625 2.2561 0.54072 4.6521 0.49906 6.9062-0.03125 0.33585-0.16859 1.1383-0.08494 0.9375-0.625-0.062-0.587-0.091-1.191-0.125-1.781-0.92-0.708-2.086-0.957-3.124-1.438-0.823-0.116-0.853-0.7191-1.188-1.2495z"/>
  </g>
  <g id="layer1" transform="matrix(.56250 0 0 .56250 7 7)">
   <path id="path2449" style="stroke-linejoin:round;stroke:url(#linearGradient2457);stroke-linecap:round;stroke-width:1.7777;fill:url(#radialGradient2455)" d="m8 0.88883c-3.9237 0-7.1112 3.1875-7.1112 7.1112s3.1875 7.1112 7.1112 7.1112 7.1112-3.1875 7.1112-7.1112-3.1875-7.1112-7.1112-7.1112z"/>
   <path id="path3536" style="fill:#fff" d="m5.3333 7.6399c0.1454 0.2709 0.3045 0.4892 0.603 0.1748 0.3804-0.191 1.6453-1.0154 1.5545-0.2433-0.3444 1.4343-0.7804 2.8566-1.0956 4.2936-0.3664 0.794 0.594 1.471 1.5323 0.934 1.0084-0.358 1.8631-0.916 2.7395-1.432-0.135-0.228-0.235-0.56-0.559-0.245-0.4378 0.17-1.3741 0.936-1.5866 0.334 0.295-1.5502 0.9126-3.0537 1.2774-4.5942 0.3722-0.7146-0.341-1.581-1.3095-0.9695-1.1755 0.439-2.142 1.1266-3.156 1.7476zm4.1719-5.3134c-1.2233-0.0123-1.7828 1.5258-0.6013 1.9055 0.9565 0.2688 1.9421-0.5076 1.6741-1.2448-0.091-0.3853-0.559-0.6896-1.0728-0.6607h-0.000001z"/>
  </g>
 </g>
</svg>
